img/logo-black-white.svg

<svg width="44" height="44" viewBox="0 0 44 44" fill="none" xmlns="http://www.w3.org/2000/svg">
<path d="M0 22C0 9.84974 9.84974 0 22 0C34.1503 0 44 9.84974 44 22C44 34.1503 34.1503 44 22 44C9.84974 44 0 34.1503 0 22Z" fill="black" fill-opacity="0.36"/>
<path d="M16.431 18.9275C16.5181 18.8508 16.5616 18.8124 16.5684 18.7748C16.5744 18.7421 16.5653 18.7086 16.5436 18.6834C16.5187 18.6544 16.4627 18.6435 16.3506 18.6217C15.0437 18.3673 13.6907 18.2181 12.5038 18.2057C12.4469 18.2051 12.4184 18.2048 12.3963 18.1942C12.3767 18.1847 12.3606 18.17 12.3495 18.1513C12.337 18.1302 12.3342 18.1021 12.3288 18.0459L11.8887 13.5208C11.8833 13.4646 11.8805 13.4366 11.8889 13.4133C11.8963 13.3928 11.9097 13.3749 11.9272 13.362C11.9472 13.3473 11.9748 13.3419 12.0302 13.3312C18.6598 12.0486 25.2586 11.9828 31.9877 13.3337C32.0428 13.3448 32.0703 13.3503 32.0901 13.3651C32.1075 13.378 32.1208 13.396 32.1281 13.4165C32.1363 13.4398 32.1335 13.4677 32.1279 13.5237L31.6713 18.0466C31.6657 18.1025 31.6629 18.1305 31.6503 18.1515C31.6392 18.1702 31.6231 18.1848 31.6035 18.1942C31.5815 18.2048 31.5531 18.2051 31.4963 18.2057C30.3093 18.2181 28.9561 18.3673 27.6489 18.6217C27.5369 18.6435 27.4809 18.6544 27.456 18.6834C27.4343 18.7086 27.4252 18.7421 27.4311 18.7748C27.438 18.8124 27.4815 18.8508 27.5686 18.9275C30.718 21.7039 32.9454 25.362 32.9954 30.501C32.996 30.5627 32.9963 30.5936 32.9844 30.6173C32.974 30.6381 32.957 30.6553 32.9363 30.6659C32.9127 30.6781 32.8819 30.6781 32.8203 30.6781H28.2834C28.2218 30.6781 28.191 30.6781 28.1676 30.6663C28.1468 30.6558 28.1303 30.6395 28.1196 30.6189C28.1075 30.5957 28.1071 30.5642 28.1062 30.501C28.0474 26.2116 25.8444 23.352 22.0957 20.9041C22.0611 20.8814 22.0438 20.8701 22.025 20.8657C22.0085 20.8618 21.991 20.8618 21.9746 20.8657C21.9558 20.8701 21.9385 20.8814 21.9038 20.9041C18.1551 23.352 15.9522 26.2116 15.8934 30.501C15.8925 30.5642 15.8921 30.5957 15.88 30.6189C15.8692 30.6395 15.8527 30.6558 15.832 30.6663C15.8086 30.6781 15.7778 30.6781 15.7162 30.6781H11.1793C11.1177 30.6781 11.0869 30.6781 11.0633 30.6659C11.0426 30.6553 11.0255 30.6381 11.0151 30.6173C11.0032 30.5936 11.0035 30.5627 11.0041 30.501C11.0541 25.3619 13.2816 21.7039 16.431 18.9275Z" fill="white"/>
</svg>

<svg width="44" height="44" fill="none" xmlns="http://www.w3.org/2000/svg"><path d="M0 22C0 9.85 9.85 0 22 0s22 9.85 22 22-9.85 22-22 22S0 34.15 0 22z" fill="#000" fill-opacity=".36"/><path d="M16.431 18.927c.087-.076.13-.115.137-.152a.11.11 0 00-.024-.092c-.025-.029-.081-.04-.193-.061-1.307-.255-2.66-.404-3.847-.416-.057 0-.086-.001-.108-.012a.11.11 0 01-.046-.043c-.013-.02-.016-.049-.021-.105l-.44-4.525a.267.267 0 010-.108.11.11 0 01.038-.051c.02-.015.048-.02.103-.03 6.63-1.283 13.229-1.35 19.958.002.055.01.082.016.102.031a.11.11 0 01.038.051c.008.024.005.052 0 .108l-.457 4.523c-.005.055-.008.084-.02.104a.109.109 0 01-.047.043.293.293 0 01-.108.012c-1.187.012-2.54.161-3.847.416-.112.021-.168.032-.193.061a.11.11 0 00-.025.092c.007.037.05.076.138.152 3.149 2.777 5.376 6.435 5.426 11.574.001.062.001.093-.01.116a.11.11 0 01-.049.049c-.023.012-.054.012-.116.012h-4.537c-.061 0-.092 0-.115-.012a.109.109 0 01-.048-.047c-.012-.023-.013-.055-.014-.118-.059-4.29-2.262-7.149-6.01-9.597a.243.243 0 00-.071-.038.11.11 0 00-.05 0 .245.245 0 00-.071.038c-3.749 2.448-5.952 5.308-6.01 9.597-.002.063-.002.095-.014.118a.11.11 0 01-.048.047c-.023.012-.054.012-.116.012H11.18c-.061 0-.092 0-.116-.012a.11.11 0 01-.048-.049c-.012-.023-.011-.054-.01-.116.05-5.14 2.277-8.797 5.426-11.574z" fill="#fff"/></svg>
